X:61
T:Boys, Them Buzzards Are Flying
C:Gary Harrison
N:Transcribed by Tristan Scroggins
R:bluegrass
L:1/8
Q:1/4=200
M:4/4
K:C
ee | e2 e2 ^cB A^F | A2 A2 ^FE ^CE | D2 ^FD GD FD | ^CE2^F E2 ee | e2 e2 ^cB A^F | 
A2 A2 ^FE ^CE | DE ^FD GD FD | ^CE z^F E2 AA | A^F E2 A3B A4 |
|: z2 B^c zB cB | A3B A4 | z2 B^c zB cB | AB AG ^FD zD | D2 E^F F2 FD | 
GD ^FD ^CE zF | E2 AA A^F E2 |1 A3B A4 :|2 A8 |] 

